X:75
T:The Liverpool Hornpipe
M:4/4
L:1/8
Q:120
C:Traditional
K:D
AG |:(3FED FA dfaf |gfec dcBA |1GBGB FAFA |
EDEF GFEG :|2dfaf bgec |d2 dc d2 A2 :|d2 fd c2 ec |
BABc dcBA |GBGB FAFA |EDEF GFEG |(3FED FA dfaf |
gfec dcBA |dfaf bgec |d2 dc d2 z2 ||
